images_elementary_svg/cmd/lc_exportdirecttoepub.svg

<svg height="24" width="24" xmlns="http://www.w3.org/2000/svg" xmlns:xlink="http://www.w3.org/1999/xlink"><linearGradient id="a" gradientTransform="matrix(.4054 0 0 .45946 2.27 .973)" gradientUnits="userSpaceOnUse" x1="24.107" x2="24.107" y1="6.589" y2="41.412"><stop offset="0" stop-color="#fff"/><stop offset="0" stop-color="#fff" stop-opacity=".235"/><stop offset="1" stop-color="#fff" stop-opacity=".157"/><stop offset="1" stop-color="#fff" stop-opacity=".392"/></linearGradient><radialGradient id="b" cx="7.496" cy="8.45" gradientTransform="matrix(0 1.13853 -.9889 0 19.656 -5.75)" gradientUnits="userSpaceOnUse" r="20"><stop offset="0" stop-color="#5f5f5f"/><stop offset=".262" stop-color="#4f4f4f"/><stop offset=".705" stop-color="#3b3b3b"/><stop offset="1" stop-color="#2b2b2b"/></radialGradient><linearGradient id="c" gradientTransform="matrix(.4 0 0 .48718 1.7 .307)" gradientUnits="userSpaceOnUse" x1="24" x2="24" xlink:href="#d" y1="44" y2="3.899"/><linearGradient id="d"><stop offset="0" stop-color="#272727"/><stop offset="1" stop-color="#454545"/></linearGradient><linearGradient id="e" gradientTransform="matrix(.4 0 0 .5 .9 .25)" gradientUnits="userSpaceOnUse" x1="10.654" x2="10.654" y1="1" y2="3"><stop offset="0" stop-color="#eee"/><stop offset="1" stop-color="#d9d9da"/></linearGradient><linearGradient id="f" gradientTransform="matrix(.4 0 0 .05128 1.7 .27)" gradientUnits="userSpaceOnUse" x1="24" x2="24" xlink:href="#d" y1="44" y2="3.899"/><radialGradient id="g" cx="4.993" cy="43.5" gradientTransform="matrix(2.00378 0 0 1.4 27.988 -17.4)" gradientUnits="userSpaceOnUse" r="2.5" xlink:href="#h"/><linearGradient id="h"><stop offset="0" stop-color="#181818"/><stop offset="1" stop-color="#181818" stop-opacity="0"/></linearGradient><radialGradient id="i" cx="4.993" cy="43.5" gradientTransform="matrix(2.00378 0 0 1.4 -20.012 -104.4)" gradientUnits="userSpaceOnUse" r="2.5" xlink:href="#h"/><linearGradient id="j" gradientUnits="userSpaceOnUse" x1="25.058" x2="25.058" y1="47.028" y2="39.999"><stop offset="0" stop-color="#181818" stop-opacity="0"/><stop offset=".5" stop-color="#181818"/><stop offset="1" stop-color="#181818" stop-opacity="0"/></linearGradient><linearGradient id="k" gradientUnits="userSpaceOnUse" x1="11.785" x2="11.785" y1="2.222" y2="21.989"><stop offset="0" stop-color="#9bdb4d"/><stop offset="1" stop-color="#68b723"/></linearGradient><linearGradient id="l" gradientTransform="matrix(1.3485 0 0 2.04184 -57.563 -25.942)" gradientUnits="userSpaceOnUse" x1="50.844" x2="50.844" y1="13.195" y2="13.685"><stop offset="0" stop-color="#fafafa"/><stop offset="1" stop-color="#d4d4d4"/></linearGradient><g opacity=".4"><path d="m38 40h5v7h-5z" fill="url(#g)" transform="matrix(.52632 0 0 .42857 -.632 2.857)"/><path d="m-10-47h5v7h-5z" fill="url(#i)" transform="matrix(-.52632 0 0 -.42857 -.632 2.857)"/><path d="m10 40h28v7h-28z" fill="url(#j)" transform="matrix(.52632 0 0 .42857 -.632 2.857)"/></g><g stroke-linejoin="round"><path d="m20.49 2.304c-.153-.655-.057-1.17-.142-1.796h-15.84l.094 1.983" fill="url(#l)" stroke="#206b00" stroke-miterlimit="0" stroke-opacity=".498" stroke-width="1.017"/><g stroke-linecap="round"><path d="m5.5 2.5h-1.6c-.228 0-.4-.02-.4-.05v-1.396c0-.444.224-.554.516-.554h1.484" fill="url(#e)" stroke="url(#f)"/><path d="m4.51 2.51h15.98v18.98h-15.98z" fill="url(#k)" stroke="#206b00" stroke-miterlimit="0" stroke-opacity=".498" stroke-width="1.019"/><path d="m5.5 2.5v19h-1.6c-.228 0-.4-.2-.4-.464v-18.536z" fill="url(#b)" stroke="url(#c)"/></g></g><path d="m4.5 3.5h15v17h-15z" fill="none" opacity=".3" stroke="url(#a)" stroke-linecap="round"/><path d="m13 6.996c-.408 0-.815.153-1.12.457l-4.426 4.427c-.61.61-.61 1.63-.002 2.24a1.012 1.012 0 0 0 .003 0l4.428 4.427c.61.608 1.63.608 2.24 0l4.427-4.428a1.012 1.012 0 0 0 .002 0c.608-.61.606-1.63-.003-2.24l-.643-.642a1.012 1.012 0 0 0 -.752-.295 1.012 1.012 0 0 0 -.295-.755l-2.739-2.734c-.303-.305-.712-.457-1.12-.457z" fill="#206b00" opacity=".05"/><path d="m13 16.142-3.142-3.142 3.142-3.142 1.047 1.047-2.095 2.095 1.048 1.047 3.142-3.142-2.737-2.737c-.224-.224-.586-.224-.81 0l-4.427 4.427c-.224.224-.224.586 0 .81l4.427 4.427c.224.224.586.224.81 0l4.427-4.427c.224-.224.224-.586 0-.81l-.642-.642-4.19 4.19z" fill="#206b00" opacity=".15"/><path d="m13 15.142-3.142-3.142 3.142-3.142 1.047 1.047-2.095 2.095 1.048 1.047 3.142-3.142-2.737-2.737c-.224-.224-.586-.224-.81 0l-4.427 4.427c-.224.224-.224.586 0 .81l4.427 4.427c.224.224.586.224.81 0l4.427-4.427c.224-.224.224-.586 0-.81l-.642-.642-4.19 4.19z" fill="#fff"/></svg>

<svg xmlns="http://www.w3.org/2000/svg" xmlns:xlink="http://www.w3.org/1999/xlink" height="24" width="24"><defs><linearGradient gradientTransform="matrix(.4054 0 0 .45946 2.27 .973)" gradientUnits="userSpaceOnUse" xlink:href="#a" id="t" y2="41.412" x2="24.107" y1="6.589" x1="24.107"/><linearGradient id="a"><stop offset="0" stop-color="#fff"/><stop offset="0" stop-color="#fff" stop-opacity=".235"/><stop offset="1" stop-color="#fff" stop-opacity=".157"/><stop offset="1" stop-color="#fff" stop-opacity=".392"/></linearGradient><radialGradient gradientTransform="matrix(0 1.13853 -.9889 0 19.656 -5.75)" gradientUnits="userSpaceOnUse" xlink:href="#b" id="r" fy="8.45" fx="7.496" r="20" cy="8.45" cx="7.496"/><linearGradient id="b"><stop offset="0" stop-color="#5f5f5f"/><stop offset=".262" stop-color="#4f4f4f"/><stop offset=".705" stop-color="#3b3b3b"/><stop offset="1" stop-color="#2b2b2b"/></linearGradient><linearGradient gradientTransform="matrix(.4 0 0 .48718 1.7 .307)" gradientUnits="userSpaceOnUse" xlink:href="#c" id="s" y2="3.899" x2="24" y1="44" x1="24"/><linearGradient id="c"><stop offset="0" stop-color="#272727"/><stop offset="1" stop-color="#454545"/></linearGradient><linearGradient gradientTransform="matrix(.4 0 0 .5 .9 .25)" gradientUnits="userSpaceOnUse" xlink:href="#d" id="o" y2="3" x2="10.654" y1="1" x1="10.654"/><linearGradient id="d"><stop offset="0" stop-color="#eee"/><stop offset="1" stop-color="#d9d9da"/></linearGradient><linearGradient gradientTransform="matrix(.4 0 0 .05128 1.7 .27)" gradientUnits="userSpaceOnUse" xlink:href="#e" id="p" y2="3.899" x2="24" y1="44" x1="24"/><linearGradient id="e"><stop offset="0" stop-color="#272727"/><stop offset="1" stop-color="#454545"/></linearGradient><radialGradient gradientTransform="matrix(2.00378 0 0 1.4 27.988 -17.4)" gradientUnits="userSpaceOnUse" xlink:href="#f" id="k" fy="43.5" fx="4.993" r="2.5" cy="43.5" cx="4.993"/><linearGradient id="f"><stop offset="0" stop-color="#181818"/><stop offset="1" stop-color="#181818" stop-opacity="0"/></linearGradient><radialGradient gradientTransform="matrix(2.00378 0 0 1.4 -20.012 -104.4)" gradientUnits="userSpaceOnUse" xlink:href="#g" id="l" fy="43.5" fx="4.993" r="2.5" cy="43.5" cx="4.993"/><linearGradient id="g"><stop offset="0" stop-color="#181818"/><stop offset="1" stop-color="#181818" stop-opacity="0"/></linearGradient><linearGradient gradientUnits="userSpaceOnUse" xlink:href="#h" id="m" y2="39.999" x2="25.058" y1="47.028" x1="25.058"/><linearGradient id="h"><stop offset="0" stop-color="#181818" stop-opacity="0"/><stop offset=".5" stop-color="#181818"/><stop offset="1" stop-color="#181818" stop-opacity="0"/></linearGradient><linearGradient id="i"><stop offset="0" stop-color="#9bdb4d"/><stop offset="1" stop-color="#68b723"/></linearGradient><linearGradient id="j"><stop offset="0" stop-color="#fafafa"/><stop offset="1" stop-color="#d4d4d4"/></linearGradient><linearGradient y2="42.413" x2="70.632" y1="22.646" x1="70.632" gradientTransform="translate(-58.847 -20.424)" gradientUnits="userSpaceOnUse" id="q" xlink:href="#i"/><linearGradient y2="13.685" x2="50.844" y1="13.195" x1="50.844" gradientTransform="matrix(1.3485 0 0 2.04184 -57.563 -25.942)" gradientUnits="userSpaceOnUse" id="n" xlink:href="#j"/></defs><g opacity=".4"><path fill="url(#k)" d="M38 40h5v7h-5z" transform="matrix(.52632 0 0 .42857 -.632 2.857)"/><path transform="matrix(-.52632 0 0 -.42857 -.632 2.857)" fill="url(#l)" d="M-10-47h5v7h-5z"/><path fill="url(#m)" d="M10 40h28v7H10z" transform="matrix(.52632 0 0 .42857 -.632 2.857)"/></g><path d="M20.49 2.304c-.153-.655-.057-1.17-.142-1.796H4.508l.094 1.983" style="isolation:auto;mix-blend-mode:normal;filter-blend-mode:normal;filter-gaussianBlur-deviation:0" fill="url(#n)" stroke="#206b00" stroke-width="1.017" stroke-linejoin="round" stroke-miterlimit="0" stroke-opacity=".498" color="#000" overflow="visible" solid-color="#000000"/><path d="M5.5 2.5H3.9c-.228 0-.4-.02-.4-.05V1.054C3.5.61 3.724.5 4.016.5H5.5" color="#000" overflow="visible" fill="url(#o)" stroke="url(#p)" stroke-linecap="round" stroke-linejoin="round"/><path style="isolation:auto;mix-blend-mode:normal;filter-blend-mode:normal;filter-gaussianBlur-deviation:0" fill="url(#q)" stroke="#206b00" stroke-width="1.019" stroke-linecap="round" stroke-linejoin="round" stroke-miterlimit="0" stroke-opacity=".498" color="#000" overflow="visible" solid-color="#000000" d="M4.51 2.51h15.98v18.98H4.51z"/><path d="M5.5 2.5v19H3.9c-.228 0-.4-.2-.4-.464V2.5z" color="#000" overflow="visible" fill="url(#r)" stroke="url(#s)" stroke-linecap="round" stroke-linejoin="round"/><path opacity=".3" fill="none" stroke="url(#t)" stroke-linecap="round" d="M4.5 3.5h15v17h-15z"/><path d="M13 6.996c-.408 0-.815.153-1.12.457L7.454 11.88c-.61.61-.61 1.63-.002 2.24a1.012 1.012 0 0 0 .003 0l4.428 4.427c.61.608 1.63.608 2.24 0l4.427-4.428a1.012 1.012 0 0 0 .002 0c.608-.61.606-1.63-.003-2.24l-.643-.642a1.012 1.012 0 0 0-.752-.295 1.012 1.012 0 0 0-.295-.755L14.12 7.453c-.303-.305-.712-.457-1.12-.457z" style="isolation:auto;mix-blend-mode:normal" color="#000" overflow="visible" opacity=".05" solid-color="#000000" fill="#206b00"/><path d="M13 16.142L9.858 13 13 9.858l1.047 1.047L11.952 13 13 14.047l3.142-3.142-2.737-2.737c-.224-.224-.586-.224-.81 0l-4.427 4.427c-.224.224-.224.586 0 .81l4.427 4.427c.224.224.586.224.81 0l4.427-4.427c.224-.224.224-.586 0-.81l-.642-.642-4.19 4.19z" style="isolation:auto;mix-blend-mode:normal;filter-blend-mode:normal;filter-gaussianBlur-deviation:0" opacity=".15" fill="#206b00" color="#000" overflow="visible" solid-color="#000000"/><path d="M13 15.142L9.858 12 13 8.858l1.047 1.047L11.952 12 13 13.047l3.142-3.142-2.737-2.737c-.224-.224-.586-.224-.81 0l-4.427 4.427c-.224.224-.224.586 0 .81l4.427 4.427c.224.224.586.224.81 0l4.427-4.427c.224-.224.224-.586 0-.81l-.642-.642-4.19 4.19z" fill="#fff"/></svg>
